shader
test_v_int_div_v_int_masked (output color Cout = 0)
{
    int divisor = 64-int(64*u);
     
                  
    int numerator = 64*int(64*v);
    int red = 0;
    int green = 32;
    int blue = 64;
    if (int(P[0]*64)%2==0) {    
        red = numerator/divisor;
        green = numerator/int(v);
        blue = int(64*v)/divisor;
    }    
    Cout = color(red/64.0,green/64.0,blue/64.0);    
}
