// Copyright Contributors to the Open Shading Language project.
// SPDX-License-Identifier: BSD-3-Clause
// https://github.com/AcademySoftwareFoundation/OpenShadingLanguage

struct testStruct{
   color c;
   int i;
   float f;
};


shader
test (
    testStruct input = {0, 0, 0},
    output testStruct out = input
)
{
    printf("testStruct: %g\n", testStruct.c);
    printf("testStruct: %g\n", testStruct);
    printf("testStruct: %d\n", testStruct);
}
