//testshade --batched --llvm_debug -g 400 400 test_sincos_w16df_w16df_w16f -od uint8 -o sinop a.tif -o cosop b.tif -o dxsin c.tif -o msinop ma.tif -o mcosop mb.tif -o mdxsin mc.tif

shader test_sincos_w16df_w16df_w16f (output float sinop = 0, 
				     output float cosop = 0, 
				     output float dxsin = 0,
				     
				     output float msinop = 0, 
				     output float mcosop = 0, 
				     output float mdxsin = 0,			     

                        )
{
 
        float a = P[0];
        float b = 2.0*a;
 //sin is df; cos is f 
        
        float sinop_ = 0.0;
        float cosop_ = 0.0;
        float dxsin_ = 0.0;
        
        sincos(a, sinop_, cosop_);
        dxsin_ = Dx(sinop_);

    
    

    if(int(P[0]*200)%2)
{
        a = P[1];
        sincos(a, msinop, mcosop);
        mdxsin = Dx(msinop);
}
    
    sinop = sinop_;
    cosop = cosop_;
    dxsin = dxsin_;
    
}
