shader
test_normal_3xv_float (output color Cout = 0)
{
    // Quantize val to avoid disagreements between scalar & SIMD as it approaches 0
    float valr = 1.0/(2*float(64-int(64*u))/64);
    float valg = 1.0/(3*float(64-int(64*u))/64);
    float valb = 1.0/(4*float(64-int(64*u))/64);
    float val2r = v;
    float val2g = v/2;
    float val2b = v/3;
     
    normal p1 = normal(valr,valg,valb);
    if (int(P[0]*64)%2==0) {
        normal p2 = normal(val2r,val2g,val2b);
        p1 = p2;
    }
    
    Cout = p1;
}
