shader
test_float_1d_u_float_v_float (string type = "perlin", output color Cout = 0)
{
    float  u_val1 = raytype("camera")/4.0;
    float  u_val2 = 2.0*raytype("camera")/4.0;

    float val = pnoise (type, u_val1, 64*v);
    val *= 2.0;
    Cout = val;
    if (int(P[0]*64)%2 == 0) {
        Cout[1] = pnoise (type, u_val2, 64*u);
    }
}
