shader test_catmullrom_dv_df_dv (output color cv = 0, output color Dxcv = 0, output color Dycv = 0)
{
 

//I need to be in test_spline_w16dv_w16df_dv	
//testshade -g 400 400 -t 1 --iters 1 --stats -o cv a.tif -o Dxcv cv.tif -o Dycv b.tif test_bezier_dv_df_dv

color colknots[16];

for (int i = 0; i < 16; ++i)

	 colknots[i] = color(1.0e9, 1.0e9, 1.0e9);

if(P[0]>0.5){
cv = spline ("catmullrom",P[0], colknots);

Dxcv = Dx(cv);
Dycv = Dy(cv);
}

}
