shader test_hermite_dv_f_dv (
	output vector Fspline1 = 0, 
	output vector DxFspline1 = 0)
{

 


color colknots[16];

for (int i = 0; i < 16; ++i){
         colknots[i] = color(1.0e9, 1.0e9, 1.0e9);
 }


if(P[0]>0.5){
Fspline1 = spline("hermite", time, colknots);
 DxFspline1 = Dx(Fspline1);
}
}
