shader test_spline (
	string splinename="spline",
	output float Fspline1 = 0, 
	output float DxFspline1 = 0,

	output float mFspline1 = 0,
        output float mDxFspline1 = 0)
{


float fltknots[13];

for (int i = 0; i < 13; ++i){
fltknots[i] = 1.0e9;
 }


  Fspline1   = spline(splinename, P[0], fltknots);
  DxFspline1 = Dx(Fspline1);

if (P[0]>0.5){
  mFspline1   = spline(splinename, P[0], fltknots);
  mDxFspline1 = Dx(mFspline1);
}


}
