shader
test_abs_u_float (output color Cout = 0)
{
    float  val = -32.0*raytype("camera");
    float  val2 = 16.0*raytype("camera");
    
    float d = abs(val);
    if (int(P[0]*64)%2==0) {
        d = abs(val2);
    }
    
    Cout = color(d/32.0, d/32.0, d/32.0);
}
