shader
test_varying_index_varying_point (output color Cout = color(0,0,0))
{
    // Test array referencing with varying index
    point parray[3] = { point(.1,u,.3), P[0]+P[1], point(.3,.3,v) };
    
    int varyingIndex = int(clamp(P[0]*3, 0, 2));
    point indirectP = parray[varyingIndex];
    
    Cout = indirectP;
}
