shader
test_varying_index_varying_color (output color Cout = color(0,0,0))
{
    // Test array referencing with varying index
    color carray[3] = { color(.1,u,.3), P[0]+P[1], color(.3,.3,v) };
    
    int varyingIndex = int(clamp(P[0]*3, 0, 2));
    color indirectC = carray[varyingIndex];
    
    Cout = indirectC;
    
    //printf ("carray[varyingIndex] = (%g)\n", indirectC);    
}
