struct ray {
    point pos;
    vector dir;
};

shader
test_uniform_index_varying_ray (output color Cout = color(0,0,0))
{

    // Test array referencing with varying index
    ray ray_array[3];
    ray_array[0].pos = point(.1*u,.2,.3);
    ray_array[0].dir = vector(.4,.5*P[0],.6*P[1]); 
    ray_array[1].pos = point(.7,.8,.9);
    ray_array[1].dir = vector(1.0*v,1.1,1.2); 
    ray_array[2].pos = point(1.3,1.4*u,1.5);
    ray_array[2].dir = vector(1.6,1.7,1.8*P[2]); 
    
    // Using getattribute to obtain a uniform, but non-const index    
    int res[2];
    getattribute("camera:resolution", res);
    int uniformIndex = res[0]%3;
    ray indirectRay = ray_array[uniformIndex];

    int uniformIndex2 = (res[0]+1)%3;
    ray indirectRay2 = ray_array[uniformIndex2];
    
    Cout = color(indirectRay2.pos[0]*indirectRay.dir[2], indirectRay2.pos[1]*indirectRay.dir[1], indirectRay2.pos[2]*indirectRay.dir[0]);
}
