shader
test_uniform_index_varying_color (output color Cout = color(0,0,0))
{
    // Test array referencing with varying index
    color carray[3] = { color(.1,u,.3), P[0]+P[1], color(.3,.3,v) };

    // Using getattribute to obtain a uniform, but non-const index    
    int res[2];
    getattribute("camera:resolution", res);
    int uniformIndex = res[0]%3;
    color indirectC = carray[uniformIndex];
    
    Cout = indirectC;
}
