shader
test ()
{
    // float
    {
        printf ("float:\n");
        float a = 0.7;
        float b = 0.2;
        printf ("  %g < %g = %d\n", a, b, a<b);
        printf ("  %g <= %g = %d\n", a, b, a<=b);
        printf ("  %g > %g = %d\n", a, b, a>b);
        printf ("  %g >= %g = %d\n", a, b, a>=b);

        printf (" varying:\n");
        a = u+0.5;
        b = v+0.5;
        printf ("  %g < %g = %d\n", a, b, a<b);
        printf ("  %g <= %g = %d\n", a, b, a<=b);
        printf ("  %g > %g = %d\n", a, b, a>b);
        printf ("  %g >= %g = %d\n", a, b, a>=b);
        printf ("\n");
    }

    // int
    {
        printf ("xint:\n");
        int a = 7;
        int b = 2;
        printf ("  %d < %d = %d\n", a, b, a<b);
        printf ("  %d <= %d = %d\n", a, b, a<=b);
        printf ("  %d > %d = %d\n", a, b, a>b);
        printf ("  %d >= %d = %d\n", a, b, a>=b);

#if 0
        // FIXME - restore this once we get float-to-int casts
        printf (" varying:\n");
        a = u+0.5;
        b = v+0.5;
        printf ("  %d < %d = %d\n", a, b, a<b);
        printf ("  %d <= %d = %d\n", a, b, a<=b);
        printf ("  %d > %d = %d\n", a, b, a>b);
        printf ("  %d >= %d = %d\n", a, b, a>=b);
        printf ("\n");
#endif
    }

}
