// Copyright Contributors to the Open Shading Language project.
// SPDX-License-Identifier: BSD-3-Clause
// https://github.com/AcademySoftwareFoundation/OpenShadingLanguage

shader test()
{
    printf ("This should print\n");
    exit ();
    printf ("This should NOT NOT NOT print\n");
}
