//
// Test arrays of structs
//



struct Astruct {
    float f;
    point p;
};


struct Bstruct {
    Astruct a[5];
};


shader
test ()
{
    printf ("test arrays of struct\n\n");

    Astruct a[5];
    a[2].f = 15;
    a[2].p = 1;

    float f;
    f = a[2].f;
    printf ("float f; f = a[2].f;  ==> %g\n", f);

    float g = a[2].f;
    printf ("float g = a[2].f;  ==> %g\n", g);

    printf ("test struct containing array of struct:\n");
    Bstruct b;
    b.a[1].f = M_PI;
    printf ("b.a[1].f == %g\n", b.a[1].f);

    printf ("test struct assignment to and from one array element:\n");
    Astruct c = a[2];
    printf ("after c=a[2], c = { %g, %g }\n", c.f, c.p);
    a[3] = c;
    printf ("after a[3]=c, a[3] = { %g, %g }\n", a[3].f, a[3].p);
}
