shader
test_vector_2d_v_float_u_float (string type = "perlin", output color Cout = 0)
{
    float  u_val1 = raytype("camera")/4.0;
    float  u_val2 = 2.0*raytype("camera")/4.0;

    color val = noise (type, u, u_val2);
    val *= 2.0;
    Cout = val;
    if (int(P[0]*64)%2 == 0) {
        Cout = noise (type, v, u_val1);
    }
}
