// Copyright Contributors to the Open Shading Language project.
// SPDX-License-Identifier: BSD-3-Clause
// https://github.com/AcademySoftwareFoundation/OpenShadingLanguage

shader
test_area_u_point (output color Cout = 0)
{
    point trip1 = point(1.0/(2*raytype("camera")), 1.0/(3*raytype("camera")), 1.0/(4*raytype("camera")));
    
    point trip2 = point(2.0/(3*raytype("camera")), 2.0/(4*raytype("camera")), 2.0/(2*raytype("camera")));

    float val1 = area(trip1);
    float val2 = 0.0;
    if (int(P[0]*32)%2==0) {
        val2 = area(trip2);
    }
    
    Cout = color(val1, val2, val1+val2);
}
