// Copyright Contributors to the Open Shading Language project.
// SPDX-License-Identifier: BSD-3-Clause
// https://github.com/AcademySoftwareFoundation/OpenShadingLanguage

//Errors in transform and transformc
shader
test_2wrongspaces (
    output color Cout_color = 0, 
    output color Cout_matrix = 0) 
{
    
    color uv = color (u, v, 0.5);
    Cout_color = transformc("spam"/*from*/,"eggs"/*to*/,uv);

    matrix m1 = matrix(0);
    getmatrix("eggs", "spam", m1);


    Cout_matrix = color(m1[0][0] + m1[0][1] + m1[0][2] + m1[0][3],
                 m1[1][0] + m1[1][1] + m1[1][2] + m1[1][3],
                 m1[2][0] + m1[2][1] + m1[2][2] + m1[2][3] +
                 m1[3][0] + m1[3][1] + m1[3][2] + m1[3][3]);
}
