// Copyright Contributors to the Open Shading Language project.
// SPDX-License-Identifier: BSD-3-Clause
// https://github.com/AcademySoftwareFoundation/OpenShadingLanguage

shader layer_a(output color Cout = 0)
{
    Cout = texture("test.tx", u, v);
}
