// Copyright Contributors to the Open Shading Language project.
// SPDX-License-Identifier: BSD-3-Clause
// https://github.com/imageworks/OpenShadingLanguage

shader test(float myparam = 1.0)
{
    printf ("myparam = %g\n", myparam);
}
