shader
test_transform_v_tospace_v_vector (output color Cout = 0)
{
    vector v1 = vector(u, v, u-v);
    vector v2 = vector(v, u, u+v);
    
    string tospaces[5] = { "common", "object", "shader", "world", "camera"};
    string tospace = tospaces[int(P[0]*64)%5];
    
    
    vector tv = transform(tospace, v1);

    if (int(P[0]*64)%2==0) {
        tv = transform(tospace, v2);
    }
    
    Cout = tv;
}
