shader
test_transform_v_tospace_u_vector (output color Cout = 0)
{
    float val = 1.0/(2*raytype("camera"));
    float val2 = val/2;
    float val3 = val/4;

    vector v1 = vector(val, val2, val3);
    vector v2 = vector(val3, val, val2);
    
    string tospaces[5] = { "common", "object", "shader", "world", "camera"};
    string tospace = tospaces[int(P[0]*64)%5];
    
    
    vector tv = transform(tospace, v1);

    if (int(P[0]*64)%2==0) {
        tv = transform(tospace, v2);
    }
    
    Cout = tv;
}
