shader
test_v_matrix_div_u_float (output color Cout = 0)
{
    matrix m1 = matrix(u,0,0,0,
              0,v,0,0,
              0,0,1,0,
              0,0,0,1);
              
    matrix rm = m1/2;
    Cout = color(rm[0][0],rm[1][1],rm[2][2]);
}
