shader
test_mix_v_float_v_float_v_float (output color Cout = 0)
{
    float  val = 1.0/(2*raytype("camera"));
    float val2 = val/2;
    float val3 = val/3;
    float val4 = val/5;
              
    float red = mix(u,v,u);
    float green = 0.5;
    float blue = mix(v,u, v);
        
    if (int(P[0]*64)%2==0) {    
        green = mix(v,u,u);
        blue =  mix(u,v,v);
    }
            
    Cout = color(red,green,blue);
}
