shader
test_mix_u_float_v_float_u_float (output color Cout = 0)
{
    float  val = 1.0/(2*raytype("camera"));
    float val2 = val/4;
    float val3 = val*0.75;
    float val4 = val/5;
              
    float red = mix(val,u,val3);
    float green = 0.5;
    float blue = mix(val2,v,val3);
        
    if (int(P[0]*64)%2==0) {    
        green = mix(val,u,val4);
        blue =  mix(val2,v,val4);
    }
            
    Cout = color(red,green,blue);
}
