// Copyright Contributors to the Open Shading Language project.
// SPDX-License-Identifier: BSD-3-Clause
// https://github.com/imageworks/OpenShadingLanguage

shader
test (string filename = "missing.tx",
      output color Cout = 0)
{
    Cout = (color) texture (filename, u, v, "missingcolor", color(1,0,0));
}
