#include "defs.h"

shader b (coords x = { 0, 0 },
          coords y = { 0, 0 },
          shading_result r = { transparent(), 0.0 })
{
    printf ("b: x = %g, %g\n", x.s, x.t);
    printf ("b: y = %g, %g\n", y.s, y.t);
    printf ("b: r = %s, %s\n", r.Copac, r.Cout);
}

