shader test_linear_df_df_f (
	float X = 0.5,
	output float Fspline1 = 0, 
	output float DxFspline1 = 0)
{

// testshade -g 400 400 -t 1 --iters 1 --stats -o Fspline1 a.tif -o DxFspline1 b.tif test_bezier_df_df_df | grep osl
   

   float fltknots[13];
 
   fltknots[0] =  (0.0/12.0);
   fltknots[ 1] = (1.0/12.0) ;
   fltknots[ 2] = (2.0/12.0) ;
   fltknots[ 3] = (3.0/12/0) ;
   fltknots[ 4] = (4.0/12.0) ;
   fltknots[ 5] = (5.0/12.0) ;
   fltknots[ 6] = (6.0/12.0) ;
   fltknots[ 7] = (7.0/12.0) ;
   fltknots[ 8] = (8.0/12.0) ;
   fltknots[ 9] = (9.0/12.0) ;
   fltknots[10] = (10.0/12.0) ;
   fltknots[11] = (11.0/12.0) ;
   fltknots[12] = (12.0/12.0) ;


if (int(P[0]*1024)%2) {

  Fspline1   = splineinverse("linear", P[0], fltknots);
  DxFspline1 = Dx(Fspline1);
}


}
