// Copyright Contributors to the Open Shading Language project.
// SPDX-License-Identifier: BSD-3-Clause
// https://github.com/imageworks/OpenShadingLanguage

// We expect this to be launched with oslc -Dfoo=bar

#ifndef foo
#define foo 0
#endif


shader test ()
{
    int bar = 42;
    printf ("foo is %d\n", foo );
}

