shader
test ()
{
    {
        float a = 0.1, b = 0.2, c = 0.3, d = 0.4,
            e = 0.5, f = 0.6, g = 0.7, h = 0.8,
            i = 0.9, j = 1.0, k = 1.1, l = 1.2,
            m = 1.3, n = 1.4, o = 1.5, p = 1.6;
        printf ("  matrix (%g) = %g\n", a, matrix(a));
        printf ("  matrix (%g, %g, %g, %g,  %g, %g, %g, %g,  %g, %g, %g, %g,  %g, %g, %g, %g) \n\t= %g\n",
                a, b, c, d, e, f, g, h, i, j, k, l, m, n, o, p, 
                matrix (a, b, c, d, e, f, g, h, i, j, k, l, m, n, o, p));

        printf (" varying:\n");
        a = u;
        b = v;
        printf ("  matrix (%g) = %g\n", a, matrix(a));
        printf ("  matrix (%g, %g, %g, %g,  %g, %g, %g, %g,  %g, %g, %g, %g,  %g, %g, %g, %g) \n\t= %g\n",
                a, b, c, d, e, f, g, h, i, j, k, l, m, n, o, p, 
                matrix (a, b, c, d, e, f, g, h, i, j, k, l, m, n, o, p));
    }

    { 
        float a = 1, b = 1, c = 0;
        printf ("\ntesting with spaces:\n");
        printf ("  matrix (\"shader\", %g) = %g\n",
                a, matrix("shader",a));
        printf ("  matrix (\"shader\", %g, 0, 0, 0, 0, 1, 0, 0, 0, 0, 1, 0, 0, 0, 0, 1) \n\t= %g\n",
                a, matrix ("shader", a, 0, 0, 0, 0, 1, 0, 0, 0, 0, 1, 0, 0, 0, 0, 1));
        a = u;
        printf (" varying:\n");
        printf ("  matrix (\"shader\", %g) = %g\n",
                a, matrix("shader",a));
        printf ("  matrix (\"shader\", %g, 0, 0, 0, 0, 1, 0, 0, 0, 0, 1, 0, 0, 0, 0, 1) \n\t= %g\n",
                a, matrix ("shader", a, 0, 0, 0, 0, 1, 0, 0, 0, 0, 1, 0, 0, 0, 0, 1));
    }
}
