#include "../common/shaders/pretty.h"


void matrix_fromto (string from, string to)
{
    printf ("  matrix (\"%s\", \"%s\") = (%.5g)\n", from, to, pretty(matrix (from, to)));
    printf ("  matrix (\"%s\", \"%s\") = (%.5g)\n", to, from, pretty(matrix (to, from)));
}



shader
test ()
{
    // Test matrix constructors
    {
        float a = 0.1, b = 0.2, c = 0.3, d = 0.4,
            e = 0.5, f = 0.6, g = 0.7, h = 0.8,
            i = 0.9, j = 1.0, k = 1.1, l = 1.2,
            m = 1.3, n = 1.4, o = 1.5, p = 1.6;
        printf ("  matrix (%.5g) = %.5g\n", a, matrix(a));
        printf ("  matrix (%.5g, %.5g, %.5g, %.5g,  %.5g, %.5g, %.5g, %.5g,  %.5g, %.5g, %.5g, %.5g,  %.5g, %.5g, %.5g, %.5g) \n\t= %.5g\n",
                a, b, c, d, e, f, g, h, i, j, k, l, m, n, o, p, 
                matrix (a, b, c, d, e, f, g, h, i, j, k, l, m, n, o, p));

        printf (" varying:\n");
        a = u;
        b = v;
        printf ("  matrix (%.5g) = %.5g\n", a, matrix(a));
        printf ("  matrix (%.5g, %.5g, %.5g, %.5g,  %.5g, %.5g, %.5g, %.5g,  %.5g, %.5g, %.5g, %.5g,  %.5g, %.5g, %.5g, %.5g) \n\t= %.5g\n",
                a, b, c, d, e, f, g, h, i, j, k, l, m, n, o, p, 
                matrix (a, b, c, d, e, f, g, h, i, j, k, l, m, n, o, p));
    }

    // Varying versions of constructors
    { 
        float a = 1, b = 1, c = 0;
        printf ("\ntesting with spaces:\n");
        printf ("  matrix (\"shader\", %.5g) = %.5g\n",
                a, pretty(matrix("shader",a)));
        printf ("  matrix (\"shader\", %.5g, 0, 0, 0, 0, 1, 0, 0, 0, 0, 1, 0, 0, 0, 0, 1) \n\t= %.5g\n",
                a, pretty(matrix ("shader", a, 0, 0, 0, 0, 1, 0, 0, 0, 0, 1, 0, 0, 0, 0, 1)));
        a = u;
        printf (" varying:\n");
        printf ("  matrix (\"shader\", %.5g) = %.5g\n",
                a, pretty(matrix("shader",a)));
        printf ("  matrix (\"shader\", %.5g, 0, 0, 0, 0, 1, 0, 0, 0, 0, 1, 0, 0, 0, 0, 1) \n\t= %.5g\n",
                a, pretty(matrix ("shader", a, 0, 0, 0, 0, 1, 0, 0, 0, 0, 1, 0, 0, 0, 0, 1)));
    }

    // Test "from-to" matrix construction
    {
        printf ("\nTesting matrix from-to construction:\n");
        matrix_fromto ("common", "shader");
        matrix_fromto ("common", "object");
        matrix_fromto ("shader", "object");
    }

    {
        matrix M = matrix ("shader", 1);
        printf ("\n\nTesting matrix component access:\n");
        printf ("  M = %.5g\n", M);
        printf ("  M[1][0..3] = %.5g %.5g %.5g %.5g\n", M[1][0], M[1][1], M[1][2], M[1][3]);
        M[1][3] = 5;
        printf ("  after M[1][3] = 5, M = %.5g\n", pretty(M));
        printf (" varying:\n");
        M[1][2] = 6+u;
        printf ("  after M[1][2] = %.5g, M = %.5g\n", 6+u, pretty(M));
    }

    {
        // Matrix arithmetic
        matrix Ident = 1;
        matrix M = matrix ("shader", 1);
        printf ("\n\nTesting matrix math:\n");
        printf ("  M = [%.5g]\n", pretty(M));
        printf ("  -M = [%.5g]\n", pretty(-M));
        printf ("  2*M = [%.5g]\n", pretty(2*M));
        printf ("  M*2 = [%.5g]\n", pretty(M*2));
        printf ("  M/2 = [%.5g]\n", pretty(M/2));
        printf ("  M*Ident = [%.5g]\n", pretty(M*Ident));
        printf ("  Ident*M = [%.5g]\n", pretty(Ident*M));
        printf ("  M*M = [%.5g]\n", pretty(M*M));
        printf ("  M/M = [%.5g]\n", pretty(M/M));
        printf ("  M/Ident = [%.5g]\n", pretty(M/Ident));
        printf ("  Ident/M = [%.5g]\n", pretty(Ident/M));
        printf ("  1/M = [%.5g]\n", pretty(1/M));
        printf ("  transpose(M) = %.5g\n", pretty(transpose(M)));
        printf ("  determinant(M) = %.5g\n", pretty(determinant(M)));
        printf ("  (M==M) ? %d\n", M == M);
        printf ("  (M!=M) ? %d\n", M != M);
        printf ("  (M==Ident) ? %d\n", M == Ident);
        printf ("  (M!=Ident) ? %d\n", M != Ident);
    }
}
