shader
test_compassign_u_index_v_float (output color Cout = 0)
{
    color  val = color(0.0);
    color  val2 = color(0.25);
    
    val[0] = P[0];
    if (int(P[0]*64)%2==0) {
        val2[1] = P[1];
    }
    Cout = val + val2;
}
