// Copyright Contributors to the Open Shading Language project.
// SPDX-License-Identifier: BSD-3-Clause
// https://github.com/AcademySoftwareFoundation/OpenShadingLanguage

shader
test_arraycopy_u_int (output color Cout = color(0,0,0))
{
    // Test array referencing with varying index
    int farray[3] = { 7, 9, 5};
    int negfarray[2] = { -5,-6 };

    int farray2[3];
    farray2 = farray;
    
    int farray3[3];    
    farray3 = farray2;
    
    if (int(P[0]*64)%2==0) {
        farray3 = negfarray;
    }
    printf("farray3=[%d,%d,%d]\n",farray3[0],farray3[1],farray3[2]);
    
    Cout = color(farray3[0]/10.0, farray3[1]/10.0, farray3[2]/10.0); 
    printf("Cout=%g\n",Cout);
}
