// Copyright Contributors to the Open Shading Language project.
// SPDX-License-Identifier: BSD-3-Clause
// https://github.com/imageworks/OpenShadingLanguage

shader b
(
    color in  = 0,
    output color out = 0
)
{
    out = in;
}
