// Copyright Contributors to the Open Shading Language project.
// SPDX-License-Identifier: BSD-3-Clause
// https://github.com/imageworks/OpenShadingLanguage

shader
test (float scale = 20,
      output color Cout = 0)
{
   Cout = (float) noise(u*scale, v*scale);
}
