// Copyright Contributors to the Open Shading Language project.
// SPDX-License-Identifier: BSD-3-Clause
// https://github.com/imageworks/OpenShadingLanguage

#define TESTMACRO(...) printf ("%f %f\n", __VA_ARGS__)


shader test_variadic_macro ()
{
    TESTMACRO(u, v);
}
