// Copyright Contributors to the Open Shading Language project.
// SPDX-License-Identifier: BSD-3-Clause
// https://github.com/AcademySoftwareFoundation/OpenShadingLanguage

shader test (string filename = "data.txt")
{
    fprintf (filename, "hello, world\n");
    fprintf (filename, "uv = %g %g\n", u, v);
}
