// Copyright Contributors to the Open Shading Language project.
// SPDX-License-Identifier: BSD-3-Clause
// https://github.com/AcademySoftwareFoundation/OpenShadingLanguage

float some_init_ops()
{
    exit();   
    return 9.0;
}

shader exit_in_initops_of_unlockedgeom(
    output float outputVal = 0, 
    float s = some_init_ops() [[ int lockgeom=0 ]]
    )
{
    printf ("This should print inputVal=%g\n",s);
    outputVal = s;
    exit ();
    printf ("This should NOT NOT NOT print\n");
}
