// Copyright Contributors to the Open Shading Language project.
// SPDX-License-Identifier: BSD-3-Clause
// https://github.com/AcademySoftwareFoundation/OpenShadingLanguage

shader varying_dowhile(output color c = 0.0)
{    
    float r = 1.0;
    int endIndex = int(P[0]*10);
    int i = 0;
    do
    {
        if (P[0] > 0.5) 
        {
            r-=0.10;
        }
        ++i;
    } while (i < endIndex);
    c = color(r, float(i)/3, 0);
}
