shader test_step_w16vw16vw16v(output vector  res = 0,
			  output vector res_m = 0)
{

	vector a = vector(u, u-v, v);
    vector b = vector(-u+v, v, u);


	vector am = vector(v, v-u, u);
    vector bm = vector(-u, u-v, v);

    vector res_ = step (a,b);
	vector res_m_ = res_;
	
        
if(int(P[0]*200)%2){

	res_m_ = step(bm,am);


}

res = res_;
res_m = res_m_;


}
