shader
test_u_color_v_color_v_color (output color Cout = 0)
{
    color val = color(0.5*raytype("camera"), 0.75*raytype("camera"), 0.25*raytype("camera"));
    color val2 = color(P[1],P[2],P[0]);
    
    
    color vc = color(float(int(P[1] + P[0])), float(int(1.5 - P[1])), float(int(P[2] + P[0])));
    color vc2 = color(float(int(1.5 - P[1])), float(int(P[2] + P[0])), float(int(P[1] + P[0])));
              
    color col = select(val, val2, vc);    
    color col2 = col;    
    
    if (int(P[0]*64)%2==0) {    
        col2 = select(val, val2, vc2);
    }

    Cout = 0.5*col + 0.5*col2;
}
