// Copyright Contributors to the Open Shading Language project.
// SPDX-License-Identifier: BSD-3-Clause
// https://github.com/AcademySoftwareFoundation/OpenShadingLanguage


// This trivial shader just produces an output `out` that defaults to
// being a copy of the shader global P.

shader getP (output point out = P)
{
}
