shader
pow_v_dv_base_u_float_exp (output vector res = 0,
                 output vector Dxres = 0,
                 output vector res_m = 0,
                 output vector Dxres_m = 0)
{
    

    
    vector a = u;
    vector c = v;
    float b = 0.2;


   vector res_ = 0;
   vector Dxres_ = 0;
   
   res_ = pow(a,b); 
   Dxres_ = Dx(res_);

  if (int(P[0]*200)%2){

  res_m = pow(c,b);
  Dxres_m = Dx(res_m);

  }

  res = res_;
  Dxres = Dxres_;

}



