shader
test_v_float_v_float_u_int (output color Cout = 0)
{
    int c1 = raytype("camera");
    int c2 = 0*raytype("camera");
              
    float red = select(P[1], P[0], c1);
    float green = select(P[0], P[1], c1);
    float blue =  select(P[1], P[2], c2);
    Cout = color(red,green,blue);
    
    
    if (int(P[0]*64)%2==0) {    
        green = select(P[0], P[1], c2);
        blue =  select(P[1], P[2], c1);
    }
        
    Cout[1] = green;
    Cout[2] = blue;
}
