// Copyright Contributors to the Open Shading Language project.
// SPDX-License-Identifier: BSD-3-Clause
// https://github.com/AcademySoftwareFoundation/OpenShadingLanguage

shader
test_matrix_v_transpose (output color Cout = 0)
{
    float val = u;
    matrix m1 = matrix(
        0.100*val, 0.125*val, 0.150*val, 0.175*val,
        0.200*val, 0.225*val, 0.250*val, 0.275*val,
        0.300*val, 0.325*val, 0.350*val, 0.375*val,
        0.400*val, 0.425*val, 0.450*val, 0.475*val
    );
    
    val = v;
    matrix m2 = matrix(
        0.400*val, 0.425*val, 0.450*val, 0.475*val,
        0.300*val, 0.325*val, 0.350*val, 0.375*val,
        0.200*val, 0.225*val, 0.250*val, 0.275*val,
        0.100*val, 0.125*val, 0.150*val, 0.175*val
    );
            
    matrix m3 = transpose(m1);        
    if (int(P[0]*64)%2==0) {
        m3 = transpose(m2);        
    }
    
    Cout = color(m3[0][0] + m3[0][1] + m3[0][2] + m3[0][3],
                 m3[1][0] + m3[1][1] + m3[1][2] + m3[1][3],
                 m3[2][0] + m3[2][1] + m3[2][2] + m3[2][3] +
                 m3[3][0] + m3[3][1] + m3[3][2] + m3[3][3]);
}
