#include "runspline.h"

shader test_spline_v_float_u_colorarray (
    output color Cout = 0)
{
    color uniform_scale = color(0.5, 0.75, 1.0)*raytype("camera");
    Cout = run_all_csplines(u, uniform_scale);
}