shader
test_compref_u_matrix_const_index (output color Cout = 0)
{
    float uval = raytype("camera");
    matrix m = matrix(
        0.011*uval, 0.012*uval, 0.013*uval, 0.014*uval,
        0.021*uval, 0.022*uval, 0.023*uval, 0.024*uval,
        0.031*uval, 0.032*uval, 0.033*uval, 0.034*uval,
        0.041*uval, 0.042*uval, 0.043*uval, 0.044*uval
        );
    
    matrix m2  = matrix(
        m[0][3], m[1][3], m[2][3], m[3][3],
        m[0][2], m[1][2], m[2][2], m[3][2], 
        m[0][1], m[1][1], m[2][1], m[3][1],
        m[0][0], m[1][0], m[2][0], m[3][0]
    );

    color c =  color(
        m[0][0] + m[1][0] + m[2][0] + m[3][0],
        m[0][1] + m[1][1] + m[2][1] + m[3][1],
        m[0][2] + m[1][2] + m[2][2] + m[3][2] +
        m[0][3] + m[1][3] + m[2][3] + m[3][3]
    );
    if (int(P[0]*64)%2==0) {
        c =  color(
            m2[0][0] + m2[1][0] + m2[2][0] + m2[3][0],
            m2[0][1] + m2[1][1] + m2[2][1] + m2[3][1],
            m2[0][2] + m2[1][2] + m2[2][2] + m2[3][2] +
            m2[0][3] + m2[1][3] + m2[2][3] + m2[3][3]
        );
    }
    
    Cout = c;
}
