shader
test_compref_v_matrix_const_index (output color Cout = 0)
{
    float v_val = P[0];
    matrix m = matrix(
        0.11*v_val, 0.12*v_val, 0.13*v_val, 0.14*v_val,
        0.21*v_val, 0.22*v_val, 0.23*v_val, 0.24*v_val,
        0.31*v_val, 0.32*v_val, 0.33*v_val, 0.34*v_val,
        0.41*v_val, 0.42*v_val, 0.43*v_val, 0.44*v_val
        );
    
    matrix m2  = matrix(
        m[0][3], m[1][3], m[2][3], m[3][3],
        m[0][2], m[1][2], m[2][2], m[3][2], 
        m[0][1], m[1][1], m[2][1], m[3][1],
        m[0][0], m[1][0], m[2][0], m[3][0]
    );

    color c =  color(
        m[0][0] + m[1][0] + m[2][0] + m[3][0],
        m[0][1] + m[1][1] + m[2][1] + m[3][1],
        m[0][2] + m[1][2] + m[2][2] + m[3][2] +
        m[0][3] + m[1][3] + m[2][3] + m[3][3]
    );
    if (int(P[0]*64)%2==0) {
        c =  color(
            m2[0][0] + m2[1][0] + m2[2][0] + m2[3][0],
            m2[0][1] + m2[1][1] + m2[2][1] + m2[3][1],
            m2[0][2] + m2[1][2] + m2[2][2] + m2[3][2] +
            m2[0][3] + m2[1][3] + m2[2][3] + m2[3][3]
        );
    }
    
    Cout = c;
}
