shader
test_getmatrix_u_fromspace_u_tospace (
    string fromspace = "--param fromspace must_be_provided", 
    string tospace = "--param tospace must_be_provided", 
    output color Cout = 0)
{
    matrix m1 = matrix(0); 
    getmatrix(fromspace, tospace, m1);
    

    matrix m2 = m1*0.5;
    
    if (int(P[0]*64)%2==0) {
        int success = getmatrix(fromspace, tospace, m2);
        if (!success) {
            m2 = matrix(1);
        }        
    }
    
    Cout = color(m2[0][0] + m2[0][1] + m2[0][2] + m2[0][3],
                 m2[1][0] + m2[1][1] + m2[1][2] + m2[1][3],
                 m2[2][0] + m2[2][1] + m2[2][2] + m2[2][3] +
                 m2[3][0] + m2[3][1] + m2[3][2] + m2[3][3]);
}
