shader
test_max_v_int_v_int (output color Cout = 0)
{
    int val = 64-int(64*u);
    int val2 = 2*val;
     
                  
    int numerator = 64*int(64*v);
    int red = 0;
    int green = 32;
    int blue = 64;
    
    red = max(numerator, val);
    green = max(numerator, int(v));
    blue = max(int(64*v), val);

    if (int(P[0]*64)%2==0) {    
        red = max(numerator, val2);
        green = max(numerator, int(v));
        blue = max(int(64*v), val2);
    }    
    
    Cout = color(red/8192.0,green/4096.0,blue/192.0);    
}
